X:16
T:Digerpolskan
R:slip jig
M:9/8
L:1/8
K:Edor
"A"e3 "Em"efg "D"f2d|"Em"B3 "Em"BcB "A"ABA|"Em"G2F "Em"G2A "G"B2d|"A"cdc "A"A3 "A"z2B|
"A"e3 "Em"efg "D"f2d|"Em"B3 "Em"BcB "A"ABA|"Em"G2F "Em"E2G "D"F2D|"A"E>FE/D/ "A"E3 "A"z3:|
|:"G"d2 B2 d2 "A"c2A|"Em"G2F "Em"GAB "D"A2F|"Em"G2F "Em"G2A "G"B2d|"A"cdc "A"A3 "A"z2B|
"G"d2 B2 d2 "A"c2A|"Em"G2F "Em"GAB "D"A2F|"Em"G2F "Em"E2G "D"F2D|"A"E>FE/D/ "A"E3 "A"z3:|
|:"A"z2E2 F2 "D"D2F|"A"E2D "A"E2F "Em"G2A|"G"B2 B2 d2 "A"c2A|"Em"G2F "Em"GAB "D"A2F|"Em"G2F "Em"G2A "G"B2d|
"A"cdc "A"A3 "A"z2B|"A"e3 "Em"efg "D"f2d|"Em"B3 "Em"BcB "A"ABA|"Em"G2F "Em"E2G "D"F2D|"A"E>FE/D/ "A"E3 "A"z3:|
